app/themes/uggwc_pro/assets/images/thema/Philosophie.svg

<svg width="16" height="16" viewBox="0 0 16 16" fill="none" xmlns="http://www.w3.org/2000/svg">
<g clip-path="url(#clip0_111_203)">
<path d="M1.08125 9H2.5C2.775 9 3 8.775 3 8.5V2.25C3 1.55938 3.55938 1 4.25 1C4.94063 1 5.5 1.55938 5.5 2.25V6.375C5.5 6.71875 5.78125 7 6.125 7C6.46875 7 6.75 6.71875 6.75 6.375V1.25C6.75 0.559375 7.30937 0 8 0C8.69063 0 9.25 0.559375 9.25 1.25V6.375C9.25 6.71875 9.53125 7 9.875 7C10.2188 7 10.5 6.71875 10.5 6.375V2.25C10.5 1.55938 11.0594 1 11.75 1C12.4406 1 13 1.55938 13 2.25V8.5C13 8.775 13.225 9 13.5 9H14.9187C15.5156 9 16 9.48438 16 10.0813C16 10.35 15.9 10.6094 15.7188 10.8094L13.0188 13.7812C11.7344 15.1938 9.9125 16 8 16C6.0875 16 4.26875 15.1938 2.98125 13.7812L0.28125 10.8094C0.1 10.6094 0 10.35 0 10.0813C0 9.48438 0.484375 9 1.08125 9ZM8 9C6.8 9 5.6 10.1188 5.16875 10.5688C5.05625 10.6844 5 10.8406 5 11C5 11.1594 5.05625 11.3156 5.16875 11.4312C5.6 11.8812 6.8 13 8 13C9.2 13 10.4 11.8812 10.8313 11.4312C10.9438 11.3156 11 11.1594 11 11C11 10.8406 10.9438 10.6844 10.8313 10.5688C10.4 10.1188 9.2 9 8 9ZM8 12C7.44688 12 7 11.5531 7 11C7 10.4469 7.44688 10 8 10C8.55313 10 9 10.4469 9 11C9 11.5531 8.55313 12 8 12Z" fill="#6E6CFF"/>
</g>
<defs>
<clipPath id="clip0_111_203">
<rect width="16" height="16" fill="white"/>
</clipPath>
</defs>
</svg>

<svg width="16" height="16" fill="none" xmlns="http://www.w3.org/2000/svg"><g clip-path="url(#a)"><path d="M1.081 9H2.5c.275 0 .5-.225.5-.5V2.25a1.25 1.25 0 1 1 2.5 0v4.125c0 .344.281.625.625.625a.627.627 0 0 0 .625-.625V1.25a1.25 1.25 0 1 1 2.5 0v5.125c0 .344.281.625.625.625a.627.627 0 0 0 .625-.625V2.25a1.25 1.25 0 1 1 2.5 0V8.5c0 .275.225.5.5.5h1.419a1.082 1.082 0 0 1 .8 1.81l-2.7 2.971a6.782 6.782 0 0 1-10.038 0l-2.7-2.972a1.082 1.082 0 0 1 .8-1.81zM8 9c-1.2 0-2.4 1.119-2.831 1.569A.615.615 0 0 0 5 11c0 .16.056.316.169.431C5.6 11.881 6.8 13 8 13s2.4-1.119 2.831-1.569A.615.615 0 0 0 11 11a.615.615 0 0 0-.169-.431C10.4 10.119 9.2 9 8 9zm0 3a.999.999 0 1 1 0-2 .999.999 0 1 1 0 2z" fill="#6E6CFF"/></g><defs><clipPath id="a"><path fill="#fff" d="M0 0h16v16H0z"/></clipPath></defs></svg>
